Mindful/img/analitics.svg

<svg width="161" height="150" viewBox="0 0 161 150" fill="none" xmlns="http://www.w3.org/2000/svg">
<path d="M102.748 96.0938H117.784V121.875H102.748V96.0938Z" fill="#4367E0"/>
<path d="M117.784 84.375H132.82V121.875H117.784V84.375Z" fill="#4976F2"/>
<path d="M132.82 63.2812H147.857V121.875H132.82V63.2812Z" fill="#548AFF"/>
<path d="M87.7116 119.531H155.375V124.219H87.7116V119.531Z" fill="#D1E4FF"/>
<path d="M80.1935 124.219L55.3547 110.668C53.7228 109.778 52.3273 108.554 51.2726 107.088C50.2178 105.622 49.5312 103.952 49.264 102.203L47.6149 91.4062V119.531H7.51813V82.0312C7.51813 79.5448 8.57424 77.1603 10.4541 75.4021C12.334 73.644 14.8837 72.6562 17.5423 72.6562H49.8124C52.0479 72.6563 54.2193 73.3551 55.9814 74.6418C57.7435 75.9285 58.9951 77.7291 59.5373 79.7575L65.1572 100.781L80.1935 112.5V124.219Z" fill="#FFB401"/>
<path d="M37.5907 84.375L40.0967 96.0938L30.5737 93.75L32.5786 84.375H37.5907Z" fill="#EF5E3B"/>
<path d="M32.5786 84.375L30.0726 79.6875L35.0847 75L40.0968 79.6875L37.5907 84.375H32.5786Z" fill="#E04F2B"/>
<path d="M70.1693 86.7188L54.5003 103.001C52.3331 105.253 49.6839 107.054 46.7245 108.287C43.7652 109.519 40.5618 110.156 37.3222 110.156H37.3222C34.1924 110.156 31.0952 109.562 28.2185 108.409L15.0363 103.125L22.5544 89.0625L40.0967 96.0938L62.6511 79.6875L70.1693 86.7188Z" fill="#FFB401"/>
<path d="M40.0964 98.4375C39.7571 98.4375 39.4214 98.373 39.1095 98.2481L23.8705 92.14C23.2596 91.8952 22.7777 91.4334 22.5309 90.8563C22.2841 90.2792 22.2925 89.634 22.5543 89.0627L22.5545 89.0623C22.6841 88.7794 22.872 88.5232 23.1076 88.3082C23.3431 88.0933 23.6216 87.9238 23.9271 87.8095C24.2327 87.6952 24.5593 87.6383 24.8883 87.642C25.2174 87.6458 25.5424 87.7101 25.8449 87.8314L39.725 93.3949L59.1347 79.2764C59.6593 78.8948 60.3245 78.7237 60.9839 78.8008C61.6434 78.8779 62.2431 79.1969 62.6511 79.6875C63.0592 80.1781 63.2421 80.8003 63.1596 81.417C63.0772 82.0338 62.7362 82.5946 62.2116 82.9762L41.6352 97.9437C41.1953 98.2638 40.6538 98.4376 40.0964 98.4375Z" fill="#FFA100"/>
<path d="M37.3224 112.5C33.8528 112.504 30.4189 111.845 27.2312 110.563L16.3523 106.203C15.7415 105.958 15.2596 105.496 15.0128 104.919C14.766 104.342 14.7744 103.697 15.0362 103.125L15.0364 103.125C15.166 102.842 15.3539 102.586 15.5894 102.371C15.825 102.156 16.1034 101.986 16.409 101.872C16.7145 101.758 17.0412 101.701 17.3702 101.705C17.6993 101.708 18.0243 101.773 18.3268 101.894L29.2056 106.254C33.1606 107.84 37.5469 108.227 41.7493 107.362C45.9516 106.498 49.7592 104.425 52.6377 101.434L66.6303 86.8929C67.0749 86.4309 67.6975 86.153 68.3612 86.1203C69.0249 86.0876 69.6752 86.3029 70.1692 86.7187L70.1694 86.7188C70.6634 87.1346 70.9606 87.7169 70.9955 88.3376C71.0304 88.9583 70.8003 89.5666 70.3557 90.0286L56.3631 104.569C53.9595 107.064 51.0227 109.059 47.7428 110.425C44.4629 111.791 40.9129 112.498 37.3224 112.5Z" fill="#FFA100"/>
<path d="M41.5645 84.375L35.0846 78.3146L28.6048 84.375C28.372 84.5927 28.0958 84.7653 27.7917 84.8831C27.4876 85.0009 27.1617 85.0616 26.8326 85.0616C26.5035 85.0616 26.1776 85.001 25.8735 84.8832C25.5695 84.7654 25.2932 84.5927 25.0605 84.3751C24.8277 84.1574 24.6431 83.899 24.5172 83.6147C24.3912 83.3303 24.3264 83.0255 24.3264 82.7177C24.3264 82.4099 24.3912 82.1051 24.5172 81.8207C24.6431 81.5364 24.8277 81.278 25.0605 81.0603L33.3125 73.3427C33.7826 72.9033 34.42 72.6565 35.0847 72.6565C35.7493 72.6565 36.3867 72.9033 36.8568 73.3427L45.1089 81.0603C45.3416 81.278 45.5262 81.5364 45.6521 81.8207C45.7781 82.1051 45.8429 82.4099 45.8429 82.7177C45.8429 83.0255 45.7781 83.3303 45.6521 83.6147C45.5262 83.899 45.3416 84.1574 45.1089 84.3751C44.8761 84.5927 44.5999 84.7654 44.2958 84.8832C43.9917 85.001 43.6658 85.0616 43.3367 85.0616C43.0076 85.0616 42.6817 85.001 42.3776 84.8832C42.0735 84.7654 41.7972 84.5927 41.5645 84.375Z" fill="#FFA100"/>
<path d="M35.0847 75C33.0907 75 31.1785 74.2592 29.7685 72.9406C28.3586 71.622 27.5665 69.8336 27.5665 67.9688V65.625L32.5786 60.9375H42.6028V67.9688C42.6028 69.8336 41.8107 71.622 40.4008 72.9406C38.9909 74.2592 37.0786 75 35.0847 75Z" fill="#FFCEB6"/>
<path d="M42.6028 60.9375L44.6808 57.0507C44.9623 56.5241 45.1089 55.9435 45.1089 55.3548C45.1089 54.8568 45.004 54.3636 44.8002 53.9035C44.5964 53.4434 44.2977 53.0254 43.9212 52.6732C43.5447 52.3211 43.0977 52.0417 42.6057 51.8512C42.1138 51.6606 41.5865 51.5625 41.054 51.5625H35.0847C33.0907 51.5625 31.1785 52.3033 29.7685 53.6219C28.3586 54.9405 27.5665 56.7289 27.5665 58.5938V65.625L32.5786 60.9375H42.6028Z" fill="#C47220"/>
<path d="M65.1572 63.2812H77.6875V72.6562H65.1572V63.2812Z" fill="#EF5E3B"/>
<path d="M97.7358 77.3438L77.6874 72.6562V63.2812L97.7358 58.5938V77.3438Z" fill="#D1E4FF"/>
<path d="M110.266 65.625H117.784V70.3125H110.266V65.625Z" fill="#BED3F7"/>
<path d="M104.806 58.0298L110.121 53.0587L113.665 56.373L108.35 61.3441L104.806 58.0298Z" fill="#BED3F7"/>
<path d="M104.804 77.915L108.347 74.6008L113.663 79.5719L110.119 82.8861L104.804 77.915Z" fill="#BED3F7"/>
<path d="M62.6512 79.6875L70.1693 86.7188L77.6875 84.375V72.6562H65.1572L62.6512 79.6875Z" fill="#FFCEB6"/>
<path d="M124.552 30.1945L142.522 13.3884L146.066 16.7027L128.096 33.5087L124.552 30.1945Z" fill="#7DAFFF"/>
<path d="M102.658 23.5134L105.735 19.8152L120.372 30.4681L117.295 34.1663L102.658 23.5134Z" fill="#7DAFFF"/>
<path d="M85.1706 41.6565L95.719 21.926L100.2 24.0213L89.6514 43.7518L85.1706 41.6565Z" fill="#7DAFFF"/>
<path d="M63.6533 23.9054L67.663 21.0929L84.2029 41.7179L80.1932 44.5304L63.6533 23.9054Z" fill="#7DAFFF"/>
<path d="M29.2582 24.64L57.155 17.6718L58.4481 22.1997L30.5512 29.1679L29.2582 24.64Z" fill="#7DAFFF"/>
<path d="M80.1935 124.219H97.1442C97.9658 124.219 98.7536 123.914 99.3346 123.37C99.9155 122.827 100.242 122.09 100.242 121.322C100.242 120.784 100.082 120.256 99.7792 119.799C99.4768 119.341 99.0441 118.971 98.5295 118.731L90.2177 114.844L91.9312 111.639C92.162 111.207 92.2417 110.718 92.159 110.242C92.0764 109.766 91.8356 109.326 91.4707 108.984C91.1058 108.643 90.6354 108.418 90.126 108.341C89.6167 108.263 89.0942 108.338 88.6327 108.554L80.1935 112.5V124.219Z" fill="#FFCEB6"/>
<path d="M22.5544 145.312L30.0725 131.25V145.312H47.6149V119.531H7.51813V145.312H22.5544Z" fill="#548AFF"/>
<path d="M25.0604 32.8125C27.8285 32.8125 30.0725 30.7138 30.0725 28.125C30.0725 25.5362 27.8285 23.4375 25.0604 23.4375C22.2923 23.4375 20.0483 25.5362 20.0483 28.125C20.0483 30.7138 22.2923 32.8125 25.0604 32.8125Z" fill="#639AFF"/>
<path d="M25.0604 35.1563C23.5735 35.1563 22.1199 34.7439 20.8836 33.9713C19.6472 33.1987 18.6836 32.1005 18.1146 30.8157C17.5456 29.531 17.3967 28.1172 17.6868 26.7533C17.9768 25.3893 18.6929 24.1365 19.7443 23.1532C20.7957 22.1698 22.1353 21.5002 23.5937 21.2289C25.0521 20.9576 26.5637 21.0968 27.9375 21.629C29.3113 22.1612 30.4854 23.0624 31.3115 24.2186C32.1376 25.3749 32.5786 26.7344 32.5786 28.125C32.5763 29.9892 31.7835 31.7763 30.374 33.0945C28.9646 34.4126 27.0537 35.1541 25.0604 35.1563ZM25.0604 25.7813C24.5648 25.7813 24.0803 25.9187 23.6682 26.1762C23.256 26.4338 22.9348 26.7998 22.7452 27.2281C22.5555 27.6564 22.5058 28.1276 22.6025 28.5822C22.6992 29.0369 22.9379 29.4545 23.2884 29.7823C23.6389 30.1101 24.0854 30.3333 24.5715 30.4237C25.0577 30.5142 25.5615 30.4677 26.0195 30.2903C26.4774 30.113 26.8688 29.8125 27.1441 29.4271C27.4195 29.0417 27.5665 28.5886 27.5665 28.125C27.5657 27.5036 27.3015 26.9079 26.8316 26.4685C26.3618 26.0291 25.7249 25.782 25.0604 25.7813Z" fill="#A6CFFF"/>
<path d="M62.6511 23.4375C65.4192 23.4375 67.6632 21.3388 67.6632 18.75C67.6632 16.1612 65.4192 14.0625 62.6511 14.0625C59.883 14.0625 57.639 16.1612 57.639 18.75C57.639 21.3388 59.883 23.4375 62.6511 23.4375Z" fill="#639AFF"/>
<path d="M62.6511 25.7813C61.1642 25.7813 59.7106 25.3689 58.4743 24.5963C57.2379 23.8237 56.2743 22.7255 55.7053 21.4407C55.1363 20.156 54.9874 18.7422 55.2775 17.3783C55.5675 16.0143 56.2836 14.7615 57.335 13.7782C58.3864 12.7948 59.726 12.1252 61.1844 11.8539C62.6428 11.5826 64.1544 11.7218 65.5282 12.254C66.902 12.7862 68.0761 13.6874 68.9022 14.8436C69.7283 15.9999 70.1693 17.3594 70.1693 18.75C70.167 20.6142 69.3742 22.4013 67.9647 23.7195C66.5553 25.0376 64.6444 25.7791 62.6511 25.7813ZM62.6511 16.4063C62.1555 16.4063 61.671 16.5437 61.2589 16.8012C60.8467 17.0588 60.5255 17.4248 60.3359 17.8531C60.1462 18.2814 60.0965 18.7526 60.1932 19.2072C60.2899 19.6619 60.5286 20.0795 60.8791 20.4073C61.2296 20.7351 61.6761 20.9583 62.1622 21.0487C62.6484 21.1392 63.1522 21.0927 63.6102 20.9153C64.0681 20.738 64.4595 20.4375 64.7348 20.0521C65.0102 19.6667 65.1572 19.2136 65.1572 18.75C65.1564 18.1286 64.8921 17.5329 64.4223 17.0935C63.9525 16.6541 63.3155 16.407 62.6511 16.4063Z" fill="#A6CFFF"/>
<path d="M85.2056 51.5625C87.9737 51.5625 90.2177 49.4638 90.2177 46.875C90.2177 44.2862 87.9737 42.1875 85.2056 42.1875C82.4375 42.1875 80.1935 44.2862 80.1935 46.875C80.1935 49.4638 82.4375 51.5625 85.2056 51.5625Z" fill="#639AFF"/>
<path d="M85.2056 53.9063C83.7186 53.9063 82.2651 53.4939 81.0287 52.7213C79.7924 51.9487 78.8288 50.8505 78.2597 49.5657C77.6907 48.281 77.5418 46.8672 77.8319 45.5033C78.122 44.1393 78.838 42.8865 79.8895 41.9032C80.9409 40.9198 82.2805 40.2502 83.7389 39.9789C85.1973 39.7076 86.7089 39.8468 88.0827 40.379C89.4564 40.9112 90.6306 41.8124 91.4567 42.9687C92.2828 44.1249 92.7237 45.4844 92.7237 46.875C92.7215 48.7392 91.9286 50.5263 90.5192 51.8445C89.1098 53.1626 87.1988 53.9041 85.2056 53.9063ZM85.2056 44.5313C84.7099 44.5313 84.2254 44.6687 83.8133 44.9262C83.4012 45.1838 83.08 45.5498 82.8903 45.9781C82.7006 46.4064 82.651 46.8776 82.7477 47.3322C82.8444 47.7869 83.0831 48.2045 83.4335 48.5323C83.784 48.8601 84.2306 49.0833 84.7167 49.1737C85.2028 49.2642 85.7067 49.2177 86.1646 49.0403C86.6225 48.863 87.0139 48.5625 87.2893 48.1771C87.5647 47.7917 87.7116 47.3386 87.7116 46.875C87.7109 46.2536 87.4466 45.6579 86.9768 45.2185C86.507 44.7791 85.87 44.532 85.2056 44.5313Z" fill="#A6CFFF"/>
<path d="M100.242 23.4375C103.01 23.4375 105.254 21.3388 105.254 18.75C105.254 16.1612 103.01 14.0625 100.242 14.0625C97.4737 14.0625 95.2297 16.1612 95.2297 18.75C95.2297 21.3388 97.4737 23.4375 100.242 23.4375Z" fill="#639AFF"/>
<path d="M100.242 25.7813C98.7549 25.7813 97.3013 25.3689 96.065 24.5963C94.8286 23.8237 93.865 22.7255 93.296 21.4407C92.727 20.156 92.5781 18.7422 92.8682 17.3783C93.1582 16.0143 93.8743 14.7615 94.9257 13.7782C95.9771 12.7948 97.3168 12.1252 98.7751 11.8539C100.234 11.5826 101.745 11.7218 103.119 12.254C104.493 12.7862 105.667 13.6874 106.493 14.8436C107.319 15.9999 107.76 17.3594 107.76 18.75C107.758 20.6142 106.965 22.4013 105.555 23.7195C104.146 25.0376 102.235 25.7791 100.242 25.7813ZM100.242 16.4063C99.7462 16.4063 99.2617 16.5437 98.8496 16.8012C98.4374 17.0588 98.1162 17.4248 97.9266 17.8531C97.7369 18.2814 97.6873 18.7526 97.7839 19.2072C97.8806 19.6619 98.1193 20.0795 98.4698 20.4073C98.8203 20.7351 99.2668 20.9583 99.7529 21.0487C100.239 21.1392 100.743 21.0927 101.201 20.9153C101.659 20.738 102.05 20.4375 102.326 20.0521C102.601 19.6667 102.748 19.2136 102.748 18.75C102.747 18.1286 102.483 17.5329 102.013 17.0935C101.543 16.6541 100.906 16.407 100.242 16.4063Z" fill="#A6CFFF"/>
<path d="M122.796 39.8438C125.564 39.8438 127.808 37.7451 127.808 35.1562C127.808 32.5674 125.564 30.4688 122.796 30.4688C120.028 30.4688 117.784 32.5674 117.784 35.1562C117.784 37.7451 120.028 39.8438 122.796 39.8438Z" fill="#639AFF"/>
<path d="M122.796 42.1875C121.309 42.1875 119.856 41.7751 118.619 41.0025C117.383 40.2299 116.419 39.1318 115.85 37.847C115.281 36.5622 115.133 35.1485 115.423 33.7845C115.713 32.4206 116.429 31.1677 117.48 30.1844C118.532 29.2011 119.871 28.5314 121.33 28.2601C122.788 27.9888 124.3 28.128 125.673 28.6602C127.047 29.1924 128.221 30.0936 129.047 31.2499C129.873 32.4062 130.314 33.7656 130.314 35.1563C130.312 37.0204 129.519 38.8076 128.11 40.1257C126.7 41.4439 124.79 42.1854 122.796 42.1875ZM122.796 32.8125C122.301 32.8125 121.816 32.95 121.404 33.2075C120.992 33.465 120.671 33.8311 120.481 34.2593C120.291 34.6876 120.242 35.1589 120.338 35.6135C120.435 36.0681 120.674 36.4858 121.024 36.8135C121.375 37.1413 121.821 37.3645 122.307 37.455C122.794 37.5454 123.297 37.499 123.755 37.3216C124.213 37.1442 124.605 36.8438 124.88 36.4584C125.155 36.0729 125.302 35.6198 125.302 35.1563C125.302 34.5349 125.037 33.9391 124.567 33.4998C124.098 33.0604 123.461 32.8132 122.796 32.8125Z" fill="#A6CFFF"/>
<path d="M147.857 16.4062C150.625 16.4062 152.869 14.3076 152.869 11.7188C152.869 9.12991 150.625 7.03125 147.857 7.03125C145.089 7.03125 142.845 9.12991 142.845 11.7188C142.845 14.3076 145.089 16.4062 147.857 16.4062Z" fill="#639AFF"/>
<path d="M147.857 18.75C146.37 18.75 144.916 18.3376 143.68 17.565C142.444 16.7924 141.48 15.6943 140.911 14.4095C140.342 13.1247 140.193 11.711 140.483 10.347C140.773 8.98309 141.489 7.73025 142.541 6.74691C143.592 5.76357 144.932 5.09391 146.39 4.82261C147.848 4.5513 149.36 4.69055 150.734 5.22273C152.108 5.7549 153.282 6.65612 154.108 7.8124C154.934 8.96868 155.375 10.3281 155.375 11.7188C155.373 13.5829 154.58 15.3701 153.17 16.6882C151.761 18.0064 149.85 18.7479 147.857 18.75ZM147.857 9.375C147.361 9.375 146.877 9.51246 146.464 9.77C146.052 10.0275 145.731 10.3936 145.541 10.8218C145.352 11.2501 145.302 11.7214 145.399 12.176C145.496 12.6306 145.734 13.0483 146.085 13.376C146.435 13.7038 146.882 13.927 147.368 14.0175C147.854 14.1079 148.358 14.0615 148.816 13.8841C149.274 13.7067 149.665 13.4063 149.94 13.0209C150.216 12.6354 150.363 12.1823 150.363 11.7188C150.362 11.0974 150.098 10.5016 149.628 10.0623C149.158 9.62287 148.521 9.37571 147.857 9.375Z" fill="#A6CFFF"/>
</svg>

<svg width="161" height="150" fill="none" xmlns="http://www.w3.org/2000/svg"><path d="M102.748 96.094h15.036v25.781h-15.036V96.094z" fill="#4367E0"/><path d="M117.784 84.375h15.036v37.5h-15.036v-37.5z" fill="#4976F2"/><path d="M132.82 63.281h15.037v58.594H132.82V63.281z" fill="#548AFF"/><path d="M87.712 119.531h67.663v4.688H87.712v-4.688z" fill="#D1E4FF"/><path d="M80.194 124.219l-24.84-13.551a12.23 12.23 0 01-4.081-3.58 11.28 11.28 0 01-2.009-4.885l-1.65-10.797v28.125H7.519v-37.5c0-2.486 1.056-4.87 2.936-6.629 1.88-1.758 4.43-2.746 7.088-2.746h32.27c2.236 0 4.407.7 6.17 1.986 1.761 1.287 3.013 3.087 3.555 5.115l5.62 21.024L80.194 112.5v11.719z" fill="#FFB401"/><path d="M37.59 84.375l2.507 11.719-9.523-2.344 2.005-9.375h5.012z" fill="#EF5E3B"/><path d="M32.579 84.375l-2.506-4.688L35.085 75l5.012 4.688-2.506 4.687h-5.012z" fill="#E04F2B"/><path d="M70.17 86.719L54.5 103a23.118 23.118 0 01-7.776 5.286 24.49 24.49 0 01-9.402 1.869c-3.13 0-6.227-.594-9.104-1.747l-13.182-5.284 7.518-14.063 17.543 7.032L62.65 79.688l7.518 7.03z" fill="#FFB401"/><path d="M40.096 98.438c-.339 0-.675-.065-.986-.19L23.87 92.14a2.425 2.425 0 01-1.34-1.284 2.204 2.204 0 01.024-1.793c.13-.284.318-.54.554-.755a2.53 2.53 0 01.82-.499 2.661 2.661 0 011.917.022l13.88 5.564 19.41-14.119a2.633 2.633 0 011.849-.475 2.55 2.55 0 011.667.886c.408.491.591 1.113.509 1.73a2.313 2.313 0 01-.948 1.56L41.635 97.943c-.44.32-.981.494-1.539.493z" fill="#FFA100"/><path d="M37.322 112.5a26.989 26.989 0 01-10.09-1.937l-10.88-4.36a2.426 2.426 0 01-1.34-1.284 2.205 2.205 0 01.024-1.794c.13-.283.318-.539.553-.754.236-.215.514-.385.82-.499a2.66 2.66 0 011.918.022l10.879 4.36a21.92 21.92 0 0012.543 1.108c4.203-.864 8.01-2.937 10.889-5.928L66.63 86.893a2.578 2.578 0 011.731-.773 2.613 2.613 0 011.808.599c.494.416.792.998.827 1.619a2.254 2.254 0 01-.64 1.69L56.363 104.57c-2.404 2.495-5.34 4.49-8.62 5.856a27.172 27.172 0 01-10.42 2.075zm4.243-28.125l-6.48-6.06-6.48 6.06c-.233.218-.51.39-.813.508a2.658 2.658 0 01-1.919 0 2.526 2.526 0 01-.813-.508 2.34 2.34 0 01-.543-.76 2.212 2.212 0 010-1.794 2.34 2.34 0 01.544-.76l8.252-7.718a2.598 2.598 0 011.772-.687c.664 0 1.302.247 1.772.687l8.252 7.717c.233.218.417.476.543.76a2.212 2.212 0 010 1.795 2.34 2.34 0 01-.543.76c-.233.218-.51.39-.813.508a2.658 2.658 0 01-1.918 0 2.523 2.523 0 01-.813-.508z" fill="#FFA100"/><path d="M35.085 75c-1.994 0-3.907-.74-5.317-2.06-1.41-1.318-2.201-3.106-2.201-4.971v-2.344l5.012-4.688h10.024v7.032c0 1.865-.792 3.653-2.202 4.972C38.99 74.259 37.079 75 35.085 75z" fill="#FFCEB6"/><path d="M42.603 60.938l2.078-3.887a3.58 3.58 0 00.12-3.147 3.788 3.788 0 00-.88-1.23 4.083 4.083 0 00-1.315-.823 4.299 4.299 0 00-1.552-.288h-5.97c-1.993 0-3.906.74-5.316 2.059-1.41 1.319-2.201 3.107-2.201 4.972v7.031l5.012-4.688h10.024z" fill="#C47220"/><path d="M65.157 63.281h12.53v9.375h-12.53v-9.375z" fill="#EF5E3B"/><path d="M97.736 77.344l-20.049-4.688v-9.375l20.049-4.687v18.75z" fill="#D1E4FF"/><path d="M110.266 65.625h7.518v4.688h-7.518v-4.688zm-5.46-7.595l5.315-4.971 3.544 3.314-5.315 4.971-3.544-3.314zm-.002 19.885l3.543-3.314 5.316 4.97-3.544 3.315-5.315-4.971z" fill="#BED3F7"/><path d="M62.651 79.688l7.518 7.03 7.519-2.343V72.656h-12.53l-2.507 7.031z" fill="#FFCEB6"/><path d="M124.552 30.195l17.97-16.807 3.544 3.315-17.97 16.806-3.544-3.314zm-21.894-6.682l3.077-3.698 14.637 10.653-3.077 3.698-14.637-10.653zM85.17 41.657l10.55-19.732 4.481 2.095-10.549 19.73-4.48-2.094zM63.653 23.905l4.01-2.812 16.54 20.625-4.01 2.812-16.54-20.625zm-34.395.735l27.897-6.968 1.293 4.528-27.897 6.968-1.293-4.528z" fill="#7DAFFF"/><path d="M80.194 124.219h16.95c.822 0 1.61-.305 2.19-.849.581-.543.908-1.28.908-2.048 0-.538-.16-1.066-.463-1.523a3.024 3.024 0 00-1.25-1.068l-8.311-3.887 1.713-3.205c.231-.432.31-.921.228-1.397a2.255 2.255 0 00-.688-1.258 2.52 2.52 0 00-1.345-.643 2.603 2.603 0 00-1.493.213l-8.44 3.946v11.719z" fill="#FFCEB6"/><path d="M22.554 145.312l7.519-14.062v14.062h17.542v-25.781H7.518v25.781h15.036z" fill="#548AFF"/><path d="M25.06 32.813c2.768 0 5.013-2.1 5.013-4.688 0-2.589-2.245-4.688-5.013-4.688s-5.012 2.1-5.012 4.688c0 2.589 2.244 4.688 5.012 4.688z" fill="#639AFF"/><path d="M25.06 35.156a7.893 7.893 0 01-4.176-1.185 7.155 7.155 0 01-2.77-3.155 6.61 6.61 0 01-.427-4.063 6.902 6.902 0 012.057-3.6 7.692 7.692 0 013.85-1.924 8.003 8.003 0 014.343.4 7.433 7.433 0 013.374 2.59 6.712 6.712 0 011.268 3.906c-.003 1.864-.796 3.651-2.205 4.97-1.41 1.318-3.32 2.06-5.314 2.061zm0-9.375c-.495 0-.98.138-1.392.395a2.385 2.385 0 00-.923 1.052c-.19.428-.24.9-.143 1.354.097.455.336.872.686 1.2.35.328.797.551 1.284.642.486.09.99.044 1.448-.134a2.472 2.472 0 001.124-.863c.276-.385.423-.838.423-1.302a2.275 2.275 0 00-.735-1.657 2.6 2.6 0 00-1.772-.687z" fill="#A6CFFF"/><path d="M62.651 23.438c2.768 0 5.012-2.1 5.012-4.688 0-2.589-2.244-4.688-5.012-4.688-2.768 0-5.012 2.1-5.012 4.688 0 2.589 2.244 4.688 5.012 4.688z" fill="#639AFF"/><path d="M62.651 25.781a7.893 7.893 0 01-4.177-1.185 7.155 7.155 0 01-2.769-3.155 6.61 6.61 0 01-.427-4.063 6.902 6.902 0 012.057-3.6 7.692 7.692 0 013.85-1.924 8.003 8.003 0 014.343.4 7.433 7.433 0 013.374 2.59 6.712 6.712 0 011.267 3.906c-.002 1.864-.795 3.651-2.204 4.97-1.41 1.318-3.32 2.06-5.314 2.061zm0-9.375c-.495 0-.98.138-1.392.395a2.385 2.385 0 00-.923 1.052c-.19.428-.24.9-.143 1.354.097.455.336.872.686 1.2.35.328.797.551 1.283.642.486.09.99.044 1.448-.134a2.47 2.47 0 001.125-.863c.275-.385.422-.838.422-1.302 0-.621-.265-1.217-.735-1.657a2.6 2.6 0 00-1.77-.687z" fill="#A6CFFF"/><path d="M85.206 51.563c2.768 0 5.012-2.1 5.012-4.688 0-2.589-2.244-4.688-5.012-4.688-2.769 0-5.013 2.1-5.013 4.688 0 2.589 2.245 4.688 5.013 4.688z" fill="#639AFF"/><path d="M85.206 53.906a7.894 7.894 0 01-4.177-1.185 7.156 7.156 0 01-2.77-3.155 6.61 6.61 0 01-.427-4.063 6.902 6.902 0 012.058-3.6 7.692 7.692 0 013.849-1.924 8.003 8.003 0 014.344.4 7.433 7.433 0 013.374 2.59 6.712 6.712 0 011.267 3.906c-.002 1.864-.795 3.651-2.205 4.97-1.41 1.318-3.32 2.06-5.313 2.061zm0-9.375c-.496 0-.98.138-1.393.395a2.386 2.386 0 00-.923 1.052c-.19.428-.239.9-.142 1.354.096.455.335.873.685 1.2.351.328.798.551 1.284.642.486.09.99.044 1.448-.134a2.472 2.472 0 001.124-.863c.276-.385.423-.838.423-1.302a2.275 2.275 0 00-.735-1.657 2.6 2.6 0 00-1.771-.687z" fill="#A6CFFF"/><path d="M100.242 23.438c2.768 0 5.012-2.1 5.012-4.688 0-2.589-2.244-4.688-5.012-4.688-2.768 0-5.012 2.1-5.012 4.688 0 2.589 2.244 4.688 5.012 4.688z" fill="#639AFF"/><path d="M100.242 25.781a7.893 7.893 0 01-4.177-1.185 7.155 7.155 0 01-2.769-3.155 6.61 6.61 0 01-.428-4.063 6.902 6.902 0 012.058-3.6 7.692 7.692 0 013.85-1.924 8.003 8.003 0 014.343.4 7.431 7.431 0 013.374 2.59 6.713 6.713 0 011.267 3.906c-.002 1.864-.795 3.651-2.205 4.97-1.409 1.318-3.32 2.06-5.313 2.061zm0-9.375c-.496 0-.98.138-1.392.395a2.385 2.385 0 00-.923 1.052c-.19.428-.24.9-.143 1.354a2.3 2.3 0 00.686 1.2c.35.328.797.551 1.283.642.486.09.99.044 1.448-.134a2.48 2.48 0 001.125-.863 2.24 2.24 0 00.422-1.302 2.273 2.273 0 00-.735-1.657 2.6 2.6 0 00-1.771-.687z" fill="#A6CFFF"/><path d="M122.796 39.844c2.768 0 5.012-2.099 5.012-4.688 0-2.589-2.244-4.687-5.012-4.687-2.768 0-5.012 2.098-5.012 4.687 0 2.59 2.244 4.688 5.012 4.688z" fill="#639AFF"/><path d="M122.796 42.188a7.895 7.895 0 01-4.177-1.186 7.157 7.157 0 01-2.769-3.155 6.61 6.61 0 01-.427-4.063 6.904 6.904 0 012.057-3.6 7.694 7.694 0 013.85-1.924 8 8 0 014.343.4 7.431 7.431 0 013.374 2.59 6.713 6.713 0 011.267 3.906c-.002 1.864-.795 3.652-2.204 4.97-1.41 1.318-3.32 2.06-5.314 2.062zm0-9.376c-.495 0-.98.138-1.392.396a2.388 2.388 0 00-.923 1.051c-.19.429-.239.9-.143 1.355.097.454.336.872.686 1.2.351.327.797.55 1.283.641.487.09.99.044 1.448-.133.458-.178.85-.478 1.125-.864a2.24 2.24 0 00.422-1.302c0-.621-.265-1.217-.735-1.656a2.596 2.596 0 00-1.771-.688z" fill="#A6CFFF"/><path d="M147.857 16.406c2.768 0 5.012-2.098 5.012-4.687 0-2.59-2.244-4.688-5.012-4.688-2.768 0-5.012 2.099-5.012 4.688 0 2.589 2.244 4.687 5.012 4.687z" fill="#639AFF"/><path d="M147.857 18.75a7.893 7.893 0 01-4.177-1.185 7.157 7.157 0 01-2.769-3.156 6.61 6.61 0 01-.428-4.062 6.9 6.9 0 012.058-3.6 7.69 7.69 0 013.849-1.924 8.004 8.004 0 014.344.4 7.43 7.43 0 013.374 2.59 6.713 6.713 0 011.267 3.906c-.002 1.864-.795 3.651-2.205 4.97-1.409 1.317-3.32 2.059-5.313 2.061zm0-9.375c-.496 0-.98.137-1.393.395a2.388 2.388 0 00-.923 1.052c-.189.428-.239.9-.142 1.354a2.3 2.3 0 00.686 1.2c.35.328.797.551 1.283.642.486.09.99.043 1.448-.134a2.474 2.474 0 001.124-.863c.276-.386.423-.839.423-1.302a2.272 2.272 0 00-.735-1.657 2.6 2.6 0 00-1.771-.687z" fill="#A6CFFF"/></svg>
